icons/lines/like-tag.svg

<svg xmlns="http://www.w3.org/2000/svg" width="24" height="24" viewBox="0 0 24 24" fill="none" stroke="currentColor" stroke-width="2" stroke-linecap="round" stroke-linejoin="round" >
  <path d="M9.65039 13.8L11.2604 15.05C11.4704 15.26 11.9404 15.3599 12.2504 15.3599H14.2304C14.8504 15.3599 15.5304 14.89 15.6904 14.27L16.9404 10.4799C17.2004 9.74994 16.7304 9.12996 15.9504 9.12996H13.8704C13.5604 9.12996 13.3004 8.86996 13.3504 8.50996L13.6104 6.84993C13.7104 6.37993 13.4004 5.85992 12.9304 5.70992C12.5104 5.54992 11.9904 5.7599 11.7904 6.0699L9.6604 9.23995" stroke-miterlimit="10"/>
  <path d="M7 13.8V8.70996C7 7.97996 7.30999 7.71997 8.03999 7.71997H8.56C9.29 7.71997 9.60001 7.97996 9.60001 8.70996V13.8C9.60001 14.53 9.29 14.79 8.56 14.79H8.03999C7.30999 14.79 7 14.53 7 13.8Z"/>
  <path d="M18 18.86H17.24C16.44 18.86 15.68 19.17 15.12 19.73L13.41 21.42C12.63 22.19 11.36 22.19 10.58 21.42L8.87 19.73C8.31 19.17 7.54 18.86 6.75 18.86H6C4.34 18.86 3 17.53 3 15.89V4.97998C3 3.33998 4.34 2.01001 6 2.01001H18C19.66 2.01001 21 3.33998 21 4.97998V15.89C21 17.52 19.66 18.86 18 18.86Z" stroke-miterlimit="10"/>
  </svg>

<svg xmlns="http://www.w3.org/2000/svg" width="24" height="24" viewBox="0 0 24 24" fill="none" stroke="currentColor" stroke-width="2" stroke-linecap="round" stroke-linejoin="round">
  <path d="M17.24 18.86a3 3 0 0 0-2.12.87l-1.71 1.69a2 2 0 0 1-2.83 0l-1.71-1.69a3 3 0 0 0-2.12-.87H6a3 3 0 0 1-3-2.97V4.98a3 3 0 0 1 3-2.97h12a3 3 0 0 1 3 2.97v10.91a3 3 0 0 1-3 2.97z" />
  <path d="M7 8.71c0-.73.31-.99 1.04-.99h.52c.73 0 1.04.26 1.04.99v5.09c0 .73-.31.99-1.04.99h-.52c-.73 0-1.04-.26-1.04-.99z" />
  <path d="m9.65 13.8 1.61 1.25c.21.21.68.31.99.31h1.98c.62 0 1.3-.47 1.46-1.09l1.25-3.79c.26-.73-.21-1.35-.99-1.35h-2.08a.525.525 0 0 1-.52-.62l.26-1.66a1 1 0 0 0-.68-1.14c-.42-.16-.94.05-1.14.36L9.66 9.24" />
</svg>
